src/assets/images/grid/propeller-logo.svg

<svg xmlns="http://www.w3.org/2000/svg" width="27" height="28" viewBox="0 0 27 28">
  <g fill="#FFFFFF" fill-rule="evenodd">
    <path d="M12.8140773,14.9715378 C12.3667364,14.5179378 12.3691909,13.7830933 12.8146909,13.33136 C13.2620318,12.87776 13.9861227,12.8765156 14.4334636,13.3294933 C14.8808045,13.7830933 14.8814182,14.5191822 14.4340773,14.9727822 C13.9879636,15.4251378 13.2614182,15.4251378 12.8140773,14.9715378 M23.2722818,19.9094933 C23.3496,19.2038933 23.9172136,15.1762489 20.4606,15.4898489 C17.0046,15.8034489 15.7405091,15.9341156 15.5858727,14.9404267 C15.5766682,14.8788267 15.5662364,14.8222044 15.5539636,14.7724267 C15.6490773,14.4687822 15.6723955,14.1452267 15.6239182,13.8322489 C16.3179409,13.6997156 17.4531682,13.5068267 18.0213955,13.5422933 C18.8749636,13.5951822 26.8387364,14.1402489 26.7957818,10.03296 C26.7534409,5.92629333 19.4763273,4.20958222 18.7786227,4.15233778 C18.0796909,4.09447111 14.0928955,3.63838222 14.5046455,7.13153778 C14.9176227,10.6259378 15.0833045,11.90336 14.1076227,12.0894044 C14.0499409,12.0999822 13.9983955,12.1124267 13.9517591,12.1261156 C13.7639864,12.0943822 13.5731455,12.0894044 13.3829182,12.1124267 C13.2528273,11.4373156 13.0294636,10.1406044 13.0662818,9.51900444 C13.1190545,8.65349333 13.6566,0.578293333 9.60537273,0.622471111 C5.55598636,0.665404444 3.86235,8.04309333 3.80589545,8.75056 C3.74821364,9.45989333 3.29964545,13.5030933 6.74582727,13.0843378 C10.1907818,12.6668267 11.4505773,12.4988267 11.6340545,13.4862933 C11.6438727,13.5398044 11.6536909,13.5877156 11.6659636,13.6318933 C11.6217818,13.7998933 11.5996909,13.9734933 11.5990773,14.1470933 C10.9946455,14.24976 9.5391,14.4787378 8.87330455,14.4171378 C8.02219091,14.3387378 0.0780545455,13.5541156 0.000736363636,17.66016 C-0.0771954545,21.7662044 7.14530455,23.7013156 7.84178182,23.7797156 C8.53825909,23.8587378 12.5103273,24.4342933 12.2010545,20.9299378 C11.8936227,17.4479822 11.7647591,16.1599822 12.7244864,15.9907378 C13.05585,16.1581156 13.4252591,16.2271822 13.7879182,16.1966933 C13.8953045,16.8556267 14.09535,18.2220267 14.0388955,18.8635378 C13.9615773,19.72656 13.1871682,27.7818489 17.2371682,27.8602489 C21.2859409,27.9392711 23.1949636,20.6163378 23.2722818,19.9094933"/>
    <path d="M14.4554318,4.47216 C14.4554318,4.47216 15.6428182,2.35100444 20.3359091,3.61224889 C19.5694773,2.28131556 13.5220909,1.61616 14.4554318,4.47216" opacity=".501"/>
    <path d="M14.2472082,2.73858667 C14.2472082,2.73858667 15.1676795,1.13823111 18.5813386,2.14374222 C17.5301795,1.19423111 14.2386341,0.607475556 14.2472082,2.73858667" opacity=".197"/>
    <path d="M22.8389932,15.1085511 C22.8389932,15.1085511 24.9308795,16.3125511 23.6870386,21.0713067 C24.9996068,20.2941511 25.6555841,14.1621511 22.8389932,15.1085511" opacity=".501"/>
    <path d="M24.5484,14.8974141 C24.5484,14.8974141 26.1272864,15.8307644 25.1350364,19.2921867 C26.0720591,18.22632 26.6501045,14.88872 24.5484,14.8974141" opacity=".197"/>
    <path d="M4.01195455,13.3947022 C4.01195455,13.3947022 1.92006818,12.1907022 3.16390909,7.43194667 C1.85134091,8.20910222 1.19536364,14.3411022 4.01195455,13.3947022" opacity=".501"/>
    <path d="M2.30230227,13.6059015 C2.30230227,13.6059015 0.724029545,12.6725511 1.71566591,9.21112889 C0.779256818,10.2763733 0.200597727,13.6145956 2.30230227,13.6059015" opacity=".197"/>
    <path d="M12.332925,23.4900711 C12.332925,23.4900711 11.077425,25.5707822 6.42790227,24.15336 C7.15076591,25.5091822 13.1736068,26.3753156 12.332925,23.4900711" opacity=".501"/>
    <path d="M12.4848,25.2294311 C12.4848,25.2294311 11.5134136,26.7986756 8.13411818,25.67992 C9.15336818,26.6642756 12.4246636,27.35992 12.4848,25.2294311" opacity=".197"/>
  </g>
</svg>

<svg id="Layer_1" data-name="Layer 1" xmlns="http://www.w3.org/2000/svg" viewBox="0 0 26.8 27.24"><defs><style>.cls-1,.cls-2,.cls-3{fill-rule:evenodd;}.cls-2{opacity:0.5;}.cls-2,.cls-3{isolation:isolate;}.cls-3{opacity:0.2;}</style></defs><title>propeller-logo</title><path class="cls-1" d="M12.81,15a1.18,1.18,0,0,1,0-1.64,1.14,1.14,0,0,1,1.62,0,1.16,1.16,0,0,1,0,1.64,1.12,1.12,0,0,1-1.62,0m10.46,4.94c.08-.71.65-4.73-2.81-4.42s-4.72.44-4.87-.55a.85.85,0,0,0,0-.17,2,2,0,0,0,.07-.94,13.6,13.6,0,0,1,2.4-.29c.85.06,8.82.6,8.78-3.51s-7.32-5.82-8-5.88-4.69-.51-4.28,3,.58,4.77-.39,5l-.16,0a1.82,1.82,0,0,0-.57,0,14,14,0,0,1-.31-2.59c0-.87.59-8.94-3.46-8.9S3.86,8,3.81,8.75,3.3,13.5,6.75,13.08s4.7-.58,4.88.41a.57.57,0,0,0,0,.14,1.81,1.81,0,0,0-.07.52,15.22,15.22,0,0,1-2.73.27C8,14.34.08,13.55,0,17.66s7.15,6,7.84,6.12,4.67.65,4.36-2.85-.44-4.77.52-4.94a2,2,0,0,0,1.07.21A14.25,14.25,0,0,1,14,18.86c-.08.87-.85,8.92,3.2,9s6-7.24,6-7.95" transform="translate(0 -0.62)"/><path class="cls-2" d="M14.46,4.47s1.18-2.12,5.88-.86c-.77-1.33-6.82-2-5.88.86" transform="translate(0 -0.62)"/><path class="cls-3" d="M14.25,2.74s.92-1.6,4.33-.6c-1-1-4.34-1.53-4.33.6" transform="translate(0 -0.62)"/><path class="cls-2" d="M22.84,15.11s2.09,1.2.85,6c1.31-.78,2-6.91-.85-6" transform="translate(0 -0.62)"/><path class="cls-3" d="M24.55,14.9s1.58.93.59,4.39c.93-1.06,1.51-4.4-.59-4.39" transform="translate(0 -0.62)"/><path class="cls-2" d="M4,13.39s-2.09-1.2-.85-6c-1.31.78-2,6.91.85,6" transform="translate(0 -0.62)"/><path class="cls-3" d="M2.3,13.61s-1.58-.94-.58-4.4c-.94,1.07-1.52,4.4.58,4.4" transform="translate(0 -0.62)"/><path class="cls-2" d="M12.33,23.49s-1.25,2.08-5.9.66c.72,1.36,6.74,2.23,5.9-.66" transform="translate(0 -0.62)"/><path class="cls-3" d="M12.48,25.23s-1,1.57-4.35.45c1,1,4.29,1.68,4.35-.45" transform="translate(0 -0.62)"/></svg>
